material/.icons/material/alpha-x.svg

<svg xmlns="http://www.w3.org/2000/svg" viewBox="0 0 24 24"><path d="M9 7l2 5-2 5h2l1-2.5 1 2.5h2l-2-5 2-5h-2l-1 2.5L11 7H9z"/></svg>

<?xml version="1.0" encoding="UTF-8"?><!DOCTYPE svg PUBLIC "-//W3C//DTD SVG 1.1//EN" "http://www.w3.org/Graphics/SVG/1.1/DTD/svg11.dtd"><svg xmlns="http://www.w3.org/2000/svg" xmlns:xlink="http://www.w3.org/1999/xlink" version="1.1" id="mdi-alpha-x" width="24" height="24" viewBox="0 0 24 24"><path d="M9,7L11,12L9,17H11L12,14.5L13,17H15L13,12L15,7H13L12,9.5L11,7H9Z" /></svg>
